packages/symbols/svgs/duotone/bars-sort-up-duotone.svg

<svg width="24" height="24" viewBox="0 0 24 24" fill="none" xmlns="http://www.w3.org/2000/svg">
<g clip-path="url(#clip0_1068_7738)">
<path fill-rule="evenodd" clip-rule="evenodd" d="M0 21C0 21.5523 0.447715 22 1 22H23C23.5523 22 24 21.5523 24 21C24 20.4477 23.5523 20 23 20H1C0.447715 20 0 20.4477 0 21Z" fill="black"/>
<path fill-rule="evenodd" clip-rule="evenodd" d="M6 9C6 9.55228 6.44772 10 7 10H17C17.5523 10 18 9.55228 18 9C18 8.44772 17.5523 8 17 8H7C6.44772 8 6 8.44772 6 9Z" fill="black"/>
<g opacity="0.5">
<path fill-rule="evenodd" clip-rule="evenodd" d="M3 15C3 15.5523 3.44772 16 4 16H20C20.5523 16 21 15.5523 21 15C21 14.4477 20.5523 14 20 14H4C3.44772 14 3 14.4477 3 15Z" fill="black"/>
<path fill-rule="evenodd" clip-rule="evenodd" d="M9 3C9 3.55228 9.44772 4 10 4H14C14.5523 4 15 3.55228 15 3C15 2.44772 14.5523 2 14 2H10C9.44772 2 9 2.44772 9 3Z" fill="black"/>
</g>
</g>
<defs>
<clipPath id="clip0_1068_7738">
<rect width="24" height="24" fill="white"/>
</clipPath>
</defs>
</svg>

<svg width="24" height="24" viewBox="0 0 24 24" xmlns="http://www.w3.org/2000/svg"><g clip-path="url(#a)" fill-rule="evenodd" clip-rule="evenodd"><path d="M0 21a1 1 0 0 0 1 1h22a1 1 0 1 0 0-2H1a1 1 0 0 0-1 1ZM6 9a1 1 0 0 0 1 1h10a1 1 0 1 0 0-2H7a1 1 0 0 0-1 1Z"/><path d="M3 15a1 1 0 0 0 1 1h16a1 1 0 1 0 0-2H4a1 1 0 0 0-1 1ZM9 3a1 1 0 0 0 1 1h4a1 1 0 1 0 0-2h-4a1 1 0 0 0-1 1Z" opacity=".5"/></g><defs><clipPath id="a"><path fill="#fff" d="M0 0h24v24H0z"/></clipPath></defs></svg>
